X: 6251
T: Carolan's Concerto
R: reel
M: 4/4
K: Dmajor
d2 d2 d2 cB|ABAG F2 A2|E2 A2 D2 A2|Bcde c2 A2|d2 a2 fgaf|
efge fgaf|g2 b2 fg a2|gfed c2 A2|BdBd g2 g2|AcAc f2 f2|GBGB e2 e2|
{/d} c2 Bc A2 AG|FGAF EFGE|FGAF GABG|A2 d2 e2 e/d/c|d4 D2 FG||
AGFE D2 A2|C2 A2 B,2 B2|A,2 d2 dcBA|G2 e2 edcB|AaAa GgGg|
dfdf cece|BeBe cdec|AaAa Gege|edcB AGFE|DA,F,A, DA,F,A,|
eGBG eGBG|FDAD GFED|dFAF BAGF|EFGA Bcde|A2 d2 e2 e/d/c|d4 D4||

